icons/lines/discount-shape.svg

<svg xmlns="http://www.w3.org/2000/svg" width="24" height="24" viewBox="0 0 24 24" fill="none" stroke="currentColor" stroke-width="2" stroke-linecap="round" stroke-linejoin="round" >
  <path d="M3.9889 14.6604L2.46891 13.1404C1.84891 12.5204 1.84891 11.5004 2.46891 10.8804L3.9889 9.36039C4.2489 9.10039 4.4589 8.59038 4.4589 8.23038V6.08036C4.4589 5.20036 5.1789 4.48038 6.0589 4.48038H8.2089C8.5689 4.48038 9.0789 4.27041 9.3389 4.01041L10.8589 2.49039C11.4789 1.87039 12.4989 1.87039 13.1189 2.49039L14.6389 4.01041C14.8989 4.27041 15.4089 4.48038 15.7689 4.48038H17.9189C18.7989 4.48038 19.5189 5.20036 19.5189 6.08036V8.23038C19.5189 8.59038 19.7289 9.10039 19.9889 9.36039L21.5089 10.8804C22.1289 11.5004 22.1289 12.5204 21.5089 13.1404L19.9889 14.6604C19.7289 14.9204 19.5189 15.4304 19.5189 15.7904V17.9403C19.5189 18.8203 18.7989 19.5404 17.9189 19.5404H15.7689C15.4089 19.5404 14.8989 19.7504 14.6389 20.0104L13.1189 21.5304C12.4989 22.1504 11.4789 22.1504 10.8589 21.5304L9.3389 20.0104C9.0789 19.7504 8.5689 19.5404 8.2089 19.5404H6.0589C5.1789 19.5404 4.4589 18.8203 4.4589 17.9403V15.7904C4.4589 15.4204 4.2489 14.9104 3.9889 14.6604Z"/>
  <path d="M9 15L15 9"/>
  <path d="M14.4945 14.5H14.5035"/>
  <path d="M9.49451 9.5H9.50349"/>
  </svg>

<svg xmlns="http://www.w3.org/2000/svg" width="24" height="24" viewBox="0 0 24 24" fill="none" stroke="currentColor" stroke-width="2" stroke-linecap="round" stroke-linejoin="round">
  <path d="M14.495 14.5h.01" />
  <path d="M2.469 13.14a1.606 1.606 0 0 1 0-2.26l1.52-1.52c.26-.26.47-.77.47-1.13V6.08a1.605 1.605 0 0 1 1.6-1.6h2.15c.36 0 .87-.21 1.13-.47l1.52-1.52a1.606 1.606 0 0 1 2.26 0l1.52 1.52c.26.26.77.47 1.13.47h2.15a1.605 1.605 0 0 1 1.6 1.6v2.15c0 .36.21.87.47 1.13l1.52 1.52a1.606 1.606 0 0 1 0 2.26l-1.52 1.52c-.26.26-.47.77-.47 1.13v2.15a1.605 1.605 0 0 1-1.6 1.6h-2.15c-.36 0-.87.21-1.13.47l-1.52 1.52a1.606 1.606 0 0 1-2.26 0l-1.52-1.52c-.26-.26-.77-.47-1.13-.47h-2.15a1.605 1.605 0 0 1-1.6-1.6v-2.15c0-.37-.21-.88-.47-1.13z" />
  <path d="m9 15 6-6" />
  <path d="M9.495 9.5h.01" />
</svg>
